dist/images/svg/medium-1288229.svg

<svg xmlns="http://www.w3.org/2000/svg" data-name="Layer 1" viewBox="0 0 24 24"><path d="M21.20905,6.41669H22V4.08331H14.51978l-2.48584,9.16663h-.068L9.50269,4.08331H2V6.41663h.76837A.89578.89578,0,0,1,3.5,7.11139v9.83032a.84093.84093,0,0,1-.73163.6416H2v2.33338H8V17.58331H6.5V7.25h.08752L10.0451,19.91669h2.712L16.25989,7.25h.07355V17.58331H14.83337v2.33338H22V17.58331h-.79095a.83931.83931,0,0,1-.70905-.6416V7.11145A.8976.8976,0,0,1,21.20905,6.41669Z"/></svg>

<svg xmlns="http://www.w3.org/2000/svg" data-name="Layer 1" viewBox="0 0 24 24"><path d="M21.21 6.417H22V4.083h-7.48l-2.486 9.167h-.068L9.503 4.083H2v2.334h.768a.896.896 0 01.732.694v9.83a.84.84 0 01-.732.642H2v2.334h6v-2.334H6.5V7.25h.088l3.457 12.667h2.712L16.26 7.25h.073v10.333h-1.5v2.334H22v-2.334h-.791a.84.84 0 01-.709-.641v-9.83a.898.898 0 01.71-.695z"/></svg>
